X:1
T:Liebesleid
T:Fritz Kreisler Arr. by Joel Moreno
T:I5
T:Liebesleid
C:Fritz Kreisler
%%score { ( 1 3 5 ) | ( 2 4 ) }
L:1/8
M:3/4
K:C
V:1 treble nm="Part_1"
V:3 treble 
V:5 treble 
V:2 bass 
V:4 bass 
V:1
"^J=1s0" !fermata!E2 | A4 e2- | e2 e2- ee | Me2 d2 !^!e2 | f4 z2 | G4 d2- | d2 d2- dd | %7
 Md2 c2 !^!d2 | e4 z2 | F4 c2- | c2 c2- cc | Mc2 _B2 c2 | d4 z2 | E7/2 A/ ^F2- | F>A ^G2 E2 | %15
 A2 [A,C]2 [A,C]2 | [A,C]4 E2 || A4 ([Ae]2 | e2) e2- ee | Me2 d2 e2 | f4 z2 | G4 d2- | d2 d2- dd | %23
"^23" Md2 c2 !^!d2 | e4 z2 | F4 c2- | c2 c2- cc | Mc2 _B2 c2 | d4 z2 | E7/2 A/ F2 | %30
"^30" F>A ^G2 E2 | A2 [A,C]2 [A,C]2 | z z A _B=B x || [Ac]3 [Aa] c>B | [Gdg]2 c2 G/c/[^Fc]/B/ | %35
 =F3 =f A>^G |[K:treble]"^36" [EBe]2 A2 ^G=G | d4 x2 | x6 | Mc4 c2- | cc d3 !^!e x2 | B4 !^!B2- | %42
 BE =E2 [=E=B]2 | [CEA]4 z2 | z c2 x3 | [Aca]2 [Aca]>a !wedge!b>!^!c' | [Gdg]2 [Gcg]2 G[^FA] | %47
[K:F] [=FB=f]2 [FBf]>f !wedge!g>a | [E=Be]2 A2 ^G=G |"^49" d4 !^!d2- x2 | dd e3 f | Mc4 c2- | %52
 cc d3 e | B4 B2- | BE =E2 [=E=B]2 | [CEA]4 z2 | z4 !fermata!E2 ||"^57" e7/2 [d^f]2 x/ | x15/2 | %59
 d4 z2 | z4 E2 | d7/2 [ce]2 x/ | x13/2 | ^c4 z2 | z4 E2 | ^c7/2 _c2 x/ | %66
[I:staff +1] E,,2[I:staff -1] d/ ^c7/2 [G_B]2 | =B4[I:staff +1] ^F,2[I:staff -1] [A^c]2 | %68
 ^F7/2 [A^c]2 x/ | x6 | z ^c/ E7/2 x |[K:treble] A7/2 [A^c]2 x/ | x6 || %73
 [Ae]7/2 !wedge!^f/ [^G-e]2 | [Ge]>^f e7/2 [A^c]2 | [^Fd]4 [Fd]AF | ^G4 E2 | %77
 z/4[I:staff +1] [D^F]2 =B,2[I:staff -1] x7/4 | x11/2 =B2 | !arpeggio![A^c]4 [Ec]^G/E/ | ^F4 E2 | %81
 [A^c]7/2 !wedge!d/ ([^Gc-]2 | F4) [Gc]>d [=G^c]7/2 !wedge!_B/ x3/2 | %83
 [^F=B]4[I:staff +1] ^F,2[I:staff -1] [A^c]2 | ^F7/2 [A^c]2 x/ |"^85" =B6 | %86
 z3/2 [A^c]2[I:staff +1] E,2[I:staff -1] x/ | =A6 | z4 E2 | A4 [^G=B-e-]2 | %90
 [^GBe]2 ([=G_B-e]2 [Be]/)e/ x | Me2 d2 e2 | f4 z2 | G4 [FA-d-]2 | [FAd]2 [^Gd-]2 [Gd]d | %95
 Md2 c2 !^!d2 | e4 z2 | F4 [E^Gc]2- | z [EGc]2!>(! [=G-c]2!>)! [Gc]2 | Mc2 _B2 c2 | d4 z2 | %101
"^I01" E7/2 A/ ^F2- | F>A ^G2 E2 | A2 [A,C]2 [A,C]2 | z c2 x3 | [Aca]2 [Aca]>a =b>!^!c' x/ | %106
 [Gdg]2 [Gcg]2 G[FA] |"^I07" [=FB=f]2 x g>a x | [E=Be]2 x ^G=G x | d4 x3 | x6 | Mc4 c2- | cc d3 e | %113
[K:treble]"^113" =B4 B2- | BE =E2 [=E=B]2 | [CEA]4 z2 | z4 !fermata!E2 | e7/2 !wedge!^f/ e2- | %118
 e>^f e7/2 [A^c]2 | d4 [^Fd]AF |"^I20" ^G4 E2 | d7/2 [ce]2 x/ | x11/2 =B2 | ^c4 [Ec]^G/E/ | %124
 ^F4 E2 | ^c7/2 !wedge!d/ c2 |[I:staff +1] E,,2[I:staff -1] d/ ^c7/2 A/ |"^I27" =B4 z2 | %128
 z3/2 [A^c]/ ^F7/2 [^Gc]/ | [^G=B]6 | z3/2 [A^c]/ E7/2 [^Gc]/ | A7/2 [A^c]2 x/ | x6 | %133
 [Ae]7/2 !wedge!^f/!>)!!>(! ([^Ge]2 |"^I34" [Ge]>)^f [^Ge]7/2 [f=a]2 | [^Fd]7/2 F/ [Ad-]2 | %136
 [Ad]>^F ^G2 E2 | z/4[I:staff +1] [D^F]2 =B,2[I:staff -1] x7/4 | [A=Bd]>e [^Gd]7/2 [e^g]2 | %139
 [A^c]7/2 E/ [^Gc]2 |"^I40" !wedge!d4 [Gc]>E ^F2 E2 | [A^c]7/2 [=Bd]2 x/ | x15/2 | [G=B]4 [^GB]2- | %144
 [GB]>^c [^FA]7/2 [Ac]2 | [G=B]4 [^GB-]2 |"^I46" [GB]>^c [^FA]7/2 [^G=B]/ | A4 z3/2 [^F^c]/ | %148
 [^G=B]4 z3/2 [^F^c]/ | A4 z3/2 [^F^c]/ | [^G=B]4 z3/2 [^F^c]/ |[K:treble]"^I51" A2 TA4- | A6- | %153
"^molto rit. _ - - - - - - - -" A6- | A6 | G2 A>a- a2 z2 |] %156
V:2
 !fermata!z2 | A,,2 [E,A,C]2 [A,CE]2 | C,2 [A,CE]2 [CEA]2 | D,2 [A,DF]2 [DFA]2 | %4
 D,2 [A,DF]2 [DFA]2 | B,,2 [G,DF]2 [DFG]2 | G,,2 [G,DF]2 [DFG]2 | C,2 [G,CE]2 [CEG]2 | %8
 C,2 [G,CE]2 [B,EG]2 | A,,2 [F,C]2 [A,CF]2 | F,,2 [A,CE]2 [CEA]2 | D,,2 [F,_B,D]2 [B,DF]2 | %12
 D,,2 [F,A,D]2 [A,DF]2 | E,,2 [E,A,C]2 [A,CE]2 | E,,2 [E,^G,B,]2 [E,G,B,]2 | A,,2 z2 E,,2 | %16
 A,,,4 z2 || A,,2 E,2 C2 |[I:staff -1] ^G4 =G2 |[I:staff +1] =D,2 [A,=DF]2 [A,DF]2 | %20
 D,2 [A,DF]2 [DFA]2 | G,,2 D,2 B,2 |[I:staff -1] F4[I:staff +1] z2 | C,,2 [G,CE]2 [CEG]2 | %24
 C,2 [G,CE]2 [B,EG]2 | F,,2 C,2 A,2 | A,,2 [G,A,C]2 [G,A,C]2 | D,,2 [F,_B,D]2 [F,B,D]2 | %28
 D,2 [A,DF]2 [DFA]2 | E,,2 [E,A,C]2 [E,A,C]2 |[I:staff -1] E4[I:staff +1] x2 | A,,2 z2 E,,2 | %32
[I:staff -1] [A,C]2[I:staff +1] x4 || F,,C, A,F, CD | E,,C, G,E, z2 | D,,_B,, F,D, _B,[B,D] | %36
[K:bass] C,,A,, EC,- C,[_D,_B,] | =D,2 [A,=DF]2 x2 | B,,,2 [A,DF]2 [DFA]2 | E,,2 [A,CE]2 [CEA]2 | %40
 E,2 [A,C]2 [C^FGA]4 | E,,2 [A,D=F]2 [DFA]2 | E,2 [^G,D]2 [G,D]2 | A,,2 E,2 E,,2 | z4 x2 | %45
 F,,C, A,F, CD | E,,C, =G,E, z2 |[K:F] D,,_B,, F,D, _B,[B,D^G] | C,,A,, EC,- C,[_D,_B,] | %49
 =D,2 z [A,=D^F]2 x3 | =B,,,2 [A,D=F]2 [DFA]2 | E,,2 [A,CE]2 [CEA]2 | E,2 [=B,E^G]2 [_B,E=G]2 | %53
 E,,2 [A,^D^F]2 [A,=D=F]2 | E,2 [^G,D]2 [G,D]2 | A,,2 E,2 E,,2 | A,,,4 z2 || A,,2 [^CE]2 A,2 | %58
 E,,2 [A,^C]2 E,2 x3/2 | =B,,2 [DE]2 ^G,2 | E,,2 [^G,D]2 E,2 | =B,,2 [DE]2 ^G,2 | %62
 E,,2 [^G,D]2 E,2 x/ | A,,2 [^CE]2 A,2 | E,,2 [A,^C]2 E,2 | A,,2 [A,^C]2 x2 | %66
 x5/2 [=G,_B,]2 E,2 x3/2 | D,2 [=B,D^F]2 x4 | =B,,,2 [=B,D^F]2 A,2 | E,,2 [DE]2 ^G,2 | %70
 E,,2 E,2 x2 |[K:bass] A,,2 [A,^C]2 [E,E]2 | E,,2 [A,^C]2 E,2 || A,,2 [^CE]2 E,2 | %74
 E,,2 [A,^C]2 E,2 x3/2 | =B,,2 [=B,D]2 A,2 x | E,,2 [^G,D]2 E,2 | %77
 =B,,2[I:staff -1] [ce]2[I:staff +1] x2 | E,,2 [D^F]2 =B,2 x3/2 | A,,2 [^CE]2 A,2 | %80
 E,,2 [A,^C]2 E,2 | A,,2 [A,^C]2 ^G,2 | x4 E,,2 [_B,E]2 =G,2 x3/2 | D,,2 [=B,D]2 x4 | %84
 =B,,,2 [=B,D]2 ^F,2 | E,,2 [DE]2 ^G,2 | E,,2 [^G,DE]2 x2 | A,,2 [A,^C]2 E,2 | A,,4 z2 | %89
 A,,2 E,2 =B,2 | A,,2 ^C2 G,2 | D,2 [A,DF]2 [DFA]2 | D,2 [^CFA]2 [=CFA]2 | G,,2 D,2 =B,2 | %94
 G,,2 D2 ^G,2 | C,,2 [G,CE]2 [CEG]2 | C,2 [=B,EG]2 [_B,EG]2 | F,,2 C,2 C2 | x A,,2 A,2 E,2 | %99
 D,,2 [F,_B,D]2 [B,DF]2 | D,2 [A,DF]2 [_A,DF]2 | E,,2 [E,=A,C]2 [A,CE]2 | %102
 E,,2 [E,=B,D]2 [^G,B,D]2 | A,,2 z2 E,,2 |[I:staff -1] [A,C]4[I:staff +1] x2 | F,,C, A,F, x5/2 | %106
 E,,C, =G,E, z2 | D,,/_B,,/ F,D, [_B,FA]3/4[B,D^G]/ x7/4 | C,,/A,,/ EC,- C,[_D,_B,] x | %109
 =D,2 [A,=D^F]2 x3 | =B,,,2 [A,D=F]2 [DFA]2 | E,,2 [A,CE]2 [CEA]2 | E,2 [=B,E^G]2 [_B,E=G]2 | %113
[K:bass] E,,2 [A,^D^F]2 [A,=D=F]2 | E,2 [^G,D]2 [G,D]2 | A,,2 E,2 E,,2 | A,,,4 z2 | %117
 E,,2 [^CE]2 A,2 | E,,2 [^CE]2 E,2 x3/2 | E,,2 [DE]2 E,2 x | E,,2 [^G,D]2 E,2 | E,,2 [DE]2 ^G,2 | %122
 E,,2 [^G,D]2 E,2 x3/2 | E,,2 [^CE]2 A,2 | E,,2 [A,^C]2 E,2 | E,,2 [A,^C]2 E,2 | %126
 x5/2 [^G,^C]2 E,2 | E,,2 [^F,D]2 E,2 | E,,2 [^G,D]2 E,2 | E,,2 [DE]2 E,2 | E,,2 [^G,DE]2 E,2 | %131
 E,,2 [^CE]2 A,2 | E,,2 [A,^C]2 E,2 | E,,2 [A,^C]2 E,2 | E,,2 [A,^C]2 E,2 x3/2 | %135
 E,,2 [=B,D]2 ^F,2 | E,,2 [=B,D]2 E,2 | E,,2[I:staff -1] e/[I:staff +1] x7/2 | %138
 E,,2 [D^F]2 =B,2 x3/2 | E,,2 [A,^C]2 E,2 |[I:staff -1] F4[I:staff +1] x6 | E,,2 [^CE]2 E,2 | %142
 E,,2 [A,^C]2 E,2 x3/2 | E,,2 [DE]2 E,2 | E,,2 [=B,D]2 E,2 x3/2 | E,,2 [DE]2 E,2 | %146
 E,,2 [=B,D]2 E,2 | E,,2 [^CE]2 E,2 | E,,2 [=B,D]2 E,2 | E,,2 [^CE]2 A,2 | E,,2 [=B,D]2 [E,B,]2 | %151
[K:bass] A,,,2 [A,^C]2 [E,A,]2 | A,,2 [^CE]2 A,2 | A,,,2 [A,^C]2 E,2 | A,,2 [A,^C]2 [E,A,]2 | %155
 x2 A,,E,/4^C/4- x/ C2 z2 |] %156
V:3
 x2 | x6 | x6 | x6 | x6 | x6 | x6 | x6 | x6 | x6 | x6 | x6 | x6 | x6 | x6 | x6 | x6 || x6 | %18
[I:staff +1] [C,B,]2 E,2 [_D,_B,]2 | x6 | x6 | x4[I:staff -1] G2 | %22
[I:staff +1] G,,2 [F,DF]2 [F,DF]2 | x6 | x6 | x6 | x6 | x6 | x6 | x6 | E,,2 [E,B,D]2 [E,B,D]2 | %31
 x6 | A,,,2 x[I:staff -1] z2 x || x6 | x6 | x6 |[K:treble] x6 | x2 z !^!d2- x | dd e3 f | x6 | x8 | %41
 x6 | x6 | x6 |[I:staff +1] A,,,4 x2 | x6 | x6 |[K:F] x6 | x6 | x4 [D^FGA]4 | x6 | x6 | x6 | x6 | %54
 x6 | x6 | x6 || x4[I:staff -1] e2- | e>^f e7/2 [A^c]2 | x6 | x6 | x4 d2- | d>e d7/2 B | x6 | x6 | %65
 x7/2[I:staff +1] ^G,2 x/ | x8 | x8 | x4[I:staff -1] B2- | B6 | %70
 x3/2[I:staff +1] [^G,D]2[I:staff -1] [A^c]2 x/ |[K:treble] x4 e2- | e4 E2 || x7/2 ^f2 x/ | x15/2 | %75
 x7 | x6 | x9/4 [Ad-]2 x7/4 | !>![Ad]>e [^Fd]7/2 !wedge!=B/ x3/2 | x6 | x6 | x7/2 d2 x/ | %82
 x19/2 _B2 | x8 | x4 =B2 | x6 | x2 E7/2 x/ | x6 | x6 | x6 | x6 | x6 | x6 | x6 | x6 | x6 | x6 | x6 | %98
 x3 E2- E/c/ x | x6 | x6 | x6 | x6 | x6 |[I:staff +1] A,,,4 x2 | x4 !^![CCA]3/2!^![=B,D^G] | x6 | %107
 x[I:staff -1] [FBf]>f x3 | x A2 x3 | x2 z !^!d2- x2 | dd e3 f | x6 | x6 |[K:treble] x6 | x6 | x6 | %116
 x6 | x7/2 ^f2 x/ | x15/2 | x7 | x6 | x4 d2- | d>e d7/2 !wedge!=B/ x3/2 | x6 | x6 | x7/2 d2 x/ | %126
 x13/2 | x6 | x6 | x6 | x6 | x4 e2- | e4 E2 | x7/2 ^f2 x/ | x15/2 | x6 | x6 | x9/4 [A=Bd]2 x7/4 | %138
 x15/2 | x6 | x4[I:staff +1] E,,2 [A,^C]2 E,2 | x4[I:staff -1] ([^G-^c]2 | %142
 [Gc]>)d [^F^c]7/2 [d^f]2 | x6 | x15/2 | x6 | x6 | x6 | x6 | x6 | x6 |[K:treble] x6 | x6 | x6 | %154
 x6 | x8 |] %156
V:4
 x2 | x6 | x6 | x6 | x6 | x6 | x6 | x6 | x6 | x6 | x6 | x6 | x6 | x6 | x6 | x6 | x6 || x6 | x6 | %19
 x6 | x6 | x6 | x6 | x6 | x6 | x6 | x6 | x6 | x6 | x6 | x6 | x6 | x z2 x3 || x6 | x6 | x6 | %36
[K:bass] x6 | x3 [DFA]2 x | x6 | x6 | x8 | x6 | x6 | x6 | x z2 x3 | x6 | x6 |[K:F] x6 | x6 | x8 | %50
 x6 | x6 | x6 | x6 | x6 | x6 | x6 || x6 | x15/2 | x6 | x6 | x6 | x13/2 | x6 | x6 | x6 | x8 | x8 | %68
 x6 | x6 | x6 |[K:bass] x6 | x6 || x6 | x15/2 | x7 | x6 | x6 | x15/2 | x6 | x6 | x6 | x23/2 | x8 | %84
 x6 | x6 | x4[I:staff -1] !wedge!=B/ x3/2 | x6 | x6 | x6 | x6 | x6 | x6 | x6 | x6 | x6 | x6 | x6 | %98
 x7 | x6 | x6 | x6 | x6 | x6 | x[I:staff +1] z2 x3 | x13/2 | x6 | x6 | x6 | x3 [D^FGA]4 | x6 | x6 | %112
 x6 |[K:bass] x6 | x6 | x6 | x6 | x6 | x15/2 | x7 | x6 | x6 | x15/2 | x6 | x6 | x6 | x13/2 | x6 | %128
 x6 | x6 | x6 | x6 | x6 | x6 | x15/2 | x6 | x6 | x6 | x15/2 | x6 | x10 | x6 | x15/2 | x6 | x15/2 | %145
 x6 | x6 | x6 | x6 | x6 | x6 |[K:bass] x6 | x6 | x6 | x6 | x8 |] %156
V:5
 x2 | x6 | x6 | x6 | x6 | x6 | x6 | x6 | x6 | x6 | x6 | x6 | x6 | x6 | x6 | x6 | x6 || x6 | x6 | %19
 x6 | x6 | x6 | x6 | x6 | x6 | x6 | x6 | x6 | x6 | x6 | x6 | x6 | x6 || x6 | x6 | x6 | %36
[K:treble] x6 | x6 | x6 | x6 | x8 | x6 | x6 | x6 | x6 | x6 | x6 |[K:F] x6 | x6 | x8 | x6 | x6 | %52
 x6 | x6 | x6 | x6 | x6 || x6 | x15/2 | x6 | x6 | x6 | x13/2 | x6 | x6 | x6 | x8 | x8 | x6 | x6 | %70
 x6 |[K:treble] x6 | x6 || x6 | x15/2 | x7 | x6 | x6 | x15/2 | x6 | x6 | x6 | x23/2 | x8 | x6 | %85
 x6 | x4 =B2 | x6 | x6 | x6 | x6 | x6 | x6 | x6 | x6 | x6 | x6 | x6 | x7 | x6 | x6 | x6 | x6 | x6 | %104
 x6 | x13/2 | x6 | x6 | x6 | x7 | x6 | x6 | x6 |[K:treble] x6 | x6 | x6 | x6 | x6 | x15/2 | x7 | %120
 x6 | x6 | x15/2 | x6 | x6 | x6 | x13/2 | x6 | x6 | x6 | x6 | x6 | x6 | x6 | x15/2 | x6 | x6 | x6 | %138
 x15/2 | x6 | x10 | x6 | x15/2 | x6 | x15/2 | x6 | x6 | x6 | x6 | x6 | x6 |[K:treble] x6 | x6 | %153
 x6 | x6 | x8 |] %156

